resources/svg/major-themes.svg

<svg xmlns="http://www.w3.org/2000/svg" viewBox="0 0 20 20" fill="currentColor"><path d="M17.5 1h-3.5v6h5v-4.5a1.5 1.5 0 0 0-1.5-1.5zm1.5 8h-5v10h3.5a1.5 1.5 0 0 0 1.5-1.5v-8.5zm-18 5h11v5h-9.5a1.5 1.5 0 0 1-1.5-1.5v-3.5zm1.5-13a1.5 1.5 0 0 0-1.5 1.5v9.5h11v-11h-9.5z"/></svg>

<svg xmlns="http://www.w3.org/2000/svg" viewBox="0 0 20 20" fill="currentColor"><path d="M17.5 1H14v6h5V2.5A1.5 1.5 0 0 0 17.5 1zM19 9h-5v10h3.5a1.5 1.5 0 0 0 1.5-1.5V9zM1 14h11v5H2.5A1.5 1.5 0 0 1 1 17.5V14zM2.5 1A1.5 1.5 0 0 0 1 2.5V12h11V1H2.5z"/></svg>
